X: 351
T: NagyKonyi Verbunk
O: Hungary
S: Andor Czompo, Hungarian Folk Dance Music, AC Publications
M: 2/4
L: 1/8
K: E
AGFB|AGFB|A2G2|F2B,2|E2 ED|E4|
edcf|edcf|e2d2|c2F2|B2B^A|B4|
g4|e4|B2e2|e2=d2|c4|c4|
B2e2|B2A2|G4|F4|E2ED|E4|



